public/assets/icons/home/check-list.svg

<svg xmlns="http://www.w3.org/2000/svg"
     viewBox="290 135 310 330" preserveAspectRatio="xMidYMid meet" version="1.0">
    <defs>
        <clipPath id="58239f5ca2">
            <path d="M 361 141.425781 L 491 141.425781 L 491 221 L 361 221 Z M 361 141.425781 " clip-rule="nonzero"/>
        </clipPath>
        <clipPath id="fa2e437388">
            <path d="M 302 176 L 550 176 L 550 458.675781 L 302 458.675781 Z M 302 176 " clip-rule="nonzero"/>
        </clipPath>
        <clipPath id="edc499f579">
            <path d="M 480 309 L 589.855469 309 L 589.855469 419 L 480 419 Z M 480 309 " clip-rule="nonzero"/>
        </clipPath>
    </defs>
    <g clip-path="url(#58239f5ca2)">
        <path fill="#225378"
              d="M 371.429688 220.710938 L 480.449219 220.710938 C 485.898438 220.710938 490.359375 216.25 490.359375 210.800781 L 490.359375 173.632812 C 490.359375 168.183594 485.898438 163.722656 480.449219 163.722656 L 452.699219 163.722656 C 450.222656 151.335938 439.070312 141.425781 425.941406 141.425781 C 412.808594 141.425781 401.660156 151.335938 399.179688 163.722656 L 371.429688 163.722656 C 365.980469 163.722656 361.519531 168.183594 361.519531 173.632812 L 361.519531 210.800781 C 361.519531 216.25 365.980469 220.710938 371.429688 220.710938 Z M 371.429688 173.632812 L 403.640625 173.632812 C 406.367188 173.632812 408.597656 171.40625 408.597656 168.679688 C 408.597656 159.261719 416.523438 151.335938 425.941406 151.335938 C 435.355469 151.335938 443.285156 159.261719 443.285156 168.679688 C 443.285156 171.40625 445.515625 173.632812 448.238281 173.632812 L 480.449219 173.632812 L 480.449219 210.800781 L 371.429688 210.800781 Z M 371.429688 173.632812 "
              fill-opacity="1" fill-rule="nonzero"/>
    </g>
    <path fill="#225378"
          d="M 430.894531 166.199219 C 430.894531 166.527344 430.863281 166.847656 430.800781 167.167969 C 430.738281 167.488281 430.644531 167.796875 430.519531 168.097656 C 430.394531 168.398438 430.242188 168.683594 430.058594 168.953125 C 429.878906 169.226562 429.675781 169.476562 429.445312 169.707031 C 429.214844 169.933594 428.964844 170.140625 428.691406 170.320312 C 428.421875 170.503906 428.136719 170.65625 427.835938 170.78125 C 427.535156 170.902344 427.226562 170.996094 426.90625 171.0625 C 426.585938 171.125 426.265625 171.15625 425.941406 171.15625 C 425.613281 171.15625 425.292969 171.125 424.972656 171.0625 C 424.652344 170.996094 424.34375 170.902344 424.042969 170.78125 C 423.742188 170.65625 423.457031 170.503906 423.1875 170.320312 C 422.917969 170.140625 422.667969 169.933594 422.4375 169.707031 C 422.207031 169.476562 422 169.226562 421.820312 168.953125 C 421.640625 168.683594 421.488281 168.398438 421.363281 168.097656 C 421.238281 167.796875 421.144531 167.488281 421.078125 167.167969 C 421.015625 166.847656 420.984375 166.527344 420.984375 166.199219 C 420.984375 165.875 421.015625 165.554688 421.078125 165.234375 C 421.144531 164.914062 421.238281 164.605469 421.363281 164.304688 C 421.488281 164.003906 421.640625 163.71875 421.820312 163.449219 C 422 163.175781 422.207031 162.925781 422.4375 162.695312 C 422.667969 162.46875 422.917969 162.261719 423.1875 162.082031 C 423.457031 161.898438 423.742188 161.746094 424.042969 161.621094 C 424.34375 161.5 424.652344 161.40625 424.972656 161.339844 C 425.292969 161.277344 425.613281 161.246094 425.941406 161.246094 C 426.265625 161.246094 426.585938 161.277344 426.90625 161.339844 C 427.226562 161.40625 427.535156 161.5 427.835938 161.621094 C 428.136719 161.746094 428.421875 161.898438 428.691406 162.082031 C 428.964844 162.261719 429.214844 162.46875 429.445312 162.695312 C 429.675781 162.925781 429.878906 163.175781 430.058594 163.449219 C 430.242188 163.71875 430.394531 164.003906 430.519531 164.304688 C 430.644531 164.605469 430.738281 164.914062 430.800781 165.234375 C 430.863281 165.554688 430.894531 165.875 430.894531 166.199219 Z M 430.894531 166.199219 "
          fill-opacity="1" fill-rule="nonzero"/>
    <path fill="#225378"
          d="M 393.730469 245.488281 C 393.730469 248.210938 395.960938 250.441406 398.683594 250.441406 L 492.835938 250.441406 C 495.5625 250.441406 497.792969 248.210938 497.792969 245.488281 C 497.792969 242.761719 495.5625 240.53125 492.835938 240.53125 L 398.683594 240.53125 C 395.960938 240.53125 393.730469 242.761719 393.730469 245.488281 Z M 393.730469 245.488281 "
          fill-opacity="1" fill-rule="nonzero"/>
    <path fill="#225378"
          d="M 360.777344 258.867188 C 361.769531 259.859375 363.007812 260.351562 364.492188 260.351562 C 365.484375 260.351562 366.476562 260.105469 367.21875 259.609375 L 381.835938 249.699219 C 384.066406 248.210938 384.808594 244.992188 383.074219 242.761719 C 381.589844 240.53125 378.367188 239.789062 376.136719 241.523438 L 365.730469 248.460938 L 364.742188 248.707031 L 362.757812 246.476562 C 360.777344 244.496094 357.804688 244.496094 355.820312 246.230469 C 353.839844 248.210938 353.839844 251.1875 355.574219 253.167969 Z M 360.777344 258.867188 "
          fill-opacity="1" fill-rule="nonzero"/>
    <path fill="#225378"
          d="M 492.835938 265.308594 L 398.683594 265.308594 C 395.960938 265.308594 393.730469 267.539062 393.730469 270.265625 C 393.730469 272.988281 395.960938 275.21875 398.683594 275.21875 L 492.835938 275.21875 C 495.5625 275.21875 497.792969 272.988281 497.792969 270.265625 C 497.792969 267.539062 495.5625 265.308594 492.835938 265.308594 Z M 492.835938 265.308594 "
          fill-opacity="1" fill-rule="nonzero"/>
    <path fill="#225378"
          d="M 360.777344 283.644531 C 361.769531 284.636719 363.007812 285.128906 364.492188 285.128906 C 365.484375 285.128906 366.476562 284.882812 367.21875 284.386719 L 381.835938 274.476562 C 384.066406 272.988281 384.808594 269.769531 383.074219 267.539062 C 381.589844 265.308594 378.367188 264.566406 376.136719 266.300781 L 365.730469 273.238281 L 364.742188 273.484375 L 362.757812 271.253906 C 360.777344 269.273438 357.804688 269.273438 355.820312 271.007812 C 353.839844 272.988281 353.839844 275.960938 355.574219 277.945312 Z M 360.777344 283.644531 "
          fill-opacity="1" fill-rule="nonzero"/>
    <path fill="#225378"
          d="M 497.792969 295.042969 C 497.792969 292.316406 495.5625 290.085938 492.835938 290.085938 L 398.683594 290.085938 C 395.960938 290.085938 393.730469 292.316406 393.730469 295.042969 C 393.730469 297.765625 395.960938 299.996094 398.683594 299.996094 L 492.835938 299.996094 C 495.5625 299.996094 497.792969 297.765625 497.792969 295.042969 Z M 497.792969 295.042969 "
          fill-opacity="1" fill-rule="nonzero"/>
    <path fill="#225378"
          d="M 360.777344 308.421875 C 361.769531 309.410156 363.007812 309.90625 364.492188 309.90625 C 365.484375 309.90625 366.476562 309.660156 367.21875 309.164062 L 381.835938 299.253906 C 384.066406 297.765625 384.808594 294.546875 383.074219 292.316406 C 381.589844 290.085938 378.367188 289.34375 376.136719 291.078125 L 365.730469 298.015625 L 364.742188 298.261719 L 362.757812 296.03125 C 360.777344 294.050781 357.804688 294.050781 355.820312 295.785156 C 353.839844 297.765625 353.839844 300.738281 355.574219 302.722656 Z M 360.777344 308.421875 "
          fill-opacity="1" fill-rule="nonzero"/>
    <path fill="#225378"
          d="M 360.777344 333.199219 C 361.769531 334.1875 363.007812 334.683594 364.492188 334.683594 C 365.484375 334.683594 366.476562 334.4375 367.21875 333.941406 L 381.835938 324.03125 C 384.066406 322.542969 384.808594 319.324219 383.074219 317.09375 C 381.589844 314.863281 378.367188 314.121094 376.136719 315.855469 L 365.730469 322.792969 L 364.742188 323.039062 L 362.757812 320.808594 C 360.777344 318.828125 357.804688 318.828125 355.820312 320.5625 C 353.839844 322.296875 353.839844 325.515625 355.574219 327.5 Z M 360.777344 333.199219 "
          fill-opacity="1" fill-rule="nonzero"/>
    <path fill="#225378"
          d="M 360.777344 357.972656 C 361.769531 358.964844 363.007812 359.460938 364.492188 359.460938 C 365.484375 359.460938 366.476562 359.214844 367.21875 358.71875 L 381.835938 348.808594 C 384.066406 347.320312 384.808594 344.097656 383.074219 341.871094 C 381.589844 339.640625 378.367188 338.894531 376.136719 340.628906 L 365.730469 347.566406 L 364.742188 347.816406 L 362.757812 345.585938 C 360.777344 343.605469 357.804688 343.605469 355.820312 345.339844 C 353.839844 347.320312 353.839844 350.292969 355.574219 352.277344 Z M 360.777344 357.972656 "
          fill-opacity="1" fill-rule="nonzero"/>
    <path fill="#225378"
          d="M 360.777344 382.75 C 361.769531 383.742188 363.007812 384.238281 364.492188 384.238281 C 365.484375 384.238281 366.476562 383.992188 367.21875 383.496094 L 381.835938 373.582031 C 384.066406 372.097656 384.808594 368.875 383.074219 366.644531 C 381.589844 364.417969 378.367188 363.671875 376.136719 365.40625 L 365.730469 372.34375 L 364.742188 372.59375 L 362.757812 370.363281 C 360.777344 368.378906 357.804688 368.378906 355.820312 370.113281 C 353.839844 372.097656 353.839844 375.070312 355.574219 377.050781 Z M 360.777344 382.75 "
          fill-opacity="1" fill-rule="nonzero"/>
    <path fill="#225378"
          d="M 360.777344 407.527344 C 361.769531 408.519531 363.007812 409.015625 364.492188 409.015625 C 365.484375 409.015625 366.476562 408.765625 367.21875 408.273438 L 381.835938 398.359375 C 384.066406 396.875 384.808594 393.652344 383.074219 391.421875 C 381.589844 389.195312 378.367188 388.449219 376.136719 390.183594 L 365.730469 397.121094 L 364.742188 397.371094 L 362.757812 395.140625 C 360.777344 393.15625 357.804688 393.15625 355.820312 394.890625 C 353.839844 396.875 353.839844 399.847656 355.574219 401.828125 Z M 360.777344 407.527344 "
          fill-opacity="1" fill-rule="nonzero"/>
    <path fill="#225378"
          d="M 539.914062 190.976562 L 539.914062 300.246094 C 543.382812 300.492188 546.605469 300.988281 549.824219 301.730469 L 549.824219 190.976562 C 549.824219 182.800781 543.136719 176.113281 534.957031 176.113281 L 500.269531 176.113281 L 500.269531 186.023438 L 534.957031 186.023438 C 537.683594 186.023438 539.914062 188.253906 539.914062 190.976562 Z M 539.914062 190.976562 "
          fill-opacity="1" fill-rule="nonzero"/>
    <g clip-path="url(#fa2e437388)">
        <path fill="#225378"
              d="M 539.914062 443.703125 C 539.914062 446.429688 537.683594 448.65625 534.957031 448.65625 L 316.921875 448.65625 C 314.195312 448.65625 311.964844 446.429688 311.964844 443.703125 L 311.964844 190.976562 C 311.964844 188.253906 314.195312 186.023438 316.921875 186.023438 L 351.609375 186.023438 L 351.609375 176.113281 L 316.921875 176.113281 C 308.746094 176.113281 302.054688 182.800781 302.054688 190.976562 L 302.054688 443.703125 C 302.054688 451.878906 308.746094 458.570312 316.921875 458.570312 L 534.957031 458.570312 C 543.136719 458.570312 549.824219 451.878906 549.824219 443.703125 L 549.824219 427.101562 C 546.605469 427.84375 543.382812 428.339844 539.914062 428.589844 Z M 539.914062 443.703125 "
              fill-opacity="1" fill-rule="nonzero"/>
    </g>
    <path fill="#225378"
          d="M 493.828125 314.863281 C 493.582031 314.863281 493.332031 314.863281 492.835938 314.863281 L 398.683594 314.863281 C 395.960938 314.863281 393.730469 317.09375 393.730469 319.816406 C 393.730469 322.542969 395.960938 324.773438 398.683594 324.773438 L 484.164062 324.773438 C 487.140625 321.058594 490.113281 317.835938 493.828125 314.863281 Z M 493.828125 314.863281 "
          fill-opacity="1" fill-rule="nonzero"/>
    <path fill="#225378"
          d="M 393.730469 344.59375 C 393.730469 347.320312 395.960938 349.550781 398.683594 349.550781 L 472.273438 349.550781 C 473.015625 346.082031 474.253906 342.859375 475.492188 339.640625 L 398.683594 339.640625 C 395.960938 339.640625 393.730469 341.871094 393.730469 344.59375 Z M 393.730469 344.59375 "
          fill-opacity="1" fill-rule="nonzero"/>
    <path fill="#225378"
          d="M 398.683594 374.328125 L 471.28125 374.328125 C 470.785156 371.105469 470.539062 367.886719 470.539062 364.417969 L 398.683594 364.417969 C 395.960938 364.417969 393.730469 366.644531 393.730469 369.371094 C 393.730469 372.097656 395.960938 374.328125 398.683594 374.328125 Z M 398.683594 374.328125 "
          fill-opacity="1" fill-rule="nonzero"/>
    <path fill="#225378"
          d="M 398.683594 389.195312 C 395.960938 389.195312 393.730469 391.421875 393.730469 394.148438 C 393.730469 396.875 395.960938 399.105469 398.683594 399.105469 L 480.695312 399.105469 C 478.714844 395.882812 476.980469 392.664062 475.492188 389.195312 Z M 398.683594 389.195312 "
          fill-opacity="1" fill-rule="nonzero"/>
    <path fill="#225378"
          d="M 520.09375 210.800781 L 520.09375 301.730469 C 523.3125 300.988281 526.535156 300.492188 530.003906 300.246094 L 530.003906 210.800781 C 530.003906 202.625 523.3125 195.933594 515.136719 195.933594 L 500.269531 195.933594 L 500.269531 205.84375 L 515.136719 205.84375 C 517.863281 205.84375 520.09375 208.074219 520.09375 210.800781 Z M 520.09375 210.800781 "
          fill-opacity="1" fill-rule="nonzero"/>
    <path fill="#225378"
          d="M 336.742188 205.84375 L 351.609375 205.84375 L 351.609375 195.933594 L 336.742188 195.933594 C 328.566406 195.933594 321.878906 202.625 321.878906 210.800781 L 321.878906 423.882812 C 321.878906 432.058594 328.566406 438.746094 336.742188 438.746094 L 515.136719 438.746094 C 521.578125 438.746094 527.277344 434.535156 529.257812 428.589844 C 525.789062 428.339844 522.320312 427.597656 519.101562 426.855469 C 518.109375 428.09375 516.871094 428.835938 515.136719 428.835938 L 336.742188 428.835938 C 334.019531 428.835938 331.789062 426.605469 331.789062 423.882812 L 331.789062 210.800781 C 331.789062 208.074219 334.019531 205.84375 336.742188 205.84375 Z M 336.742188 205.84375 "
          fill-opacity="1" fill-rule="nonzero"/>
    <g clip-path="url(#edc499f579)">
        <path fill="#225378"
              d="M 534.957031 309.90625 C 504.976562 309.90625 480.449219 334.4375 480.449219 364.417969 C 480.449219 394.398438 504.976562 418.925781 534.957031 418.925781 C 564.9375 418.925781 589.46875 394.398438 589.46875 364.417969 C 589.46875 334.4375 564.9375 309.90625 534.957031 309.90625 Z M 534.957031 409.015625 C 510.429688 409.015625 490.359375 388.945312 490.359375 364.417969 C 490.359375 339.886719 510.429688 319.816406 534.957031 319.816406 C 559.488281 319.816406 579.558594 339.886719 579.558594 364.417969 C 579.558594 388.945312 559.488281 409.015625 534.957031 409.015625 Z M 534.957031 409.015625 "
              fill-opacity="1" fill-rule="nonzero"/>
    </g>
    <path fill="#225378"
          d="M 549.328125 350.542969 L 527.523438 367.390625 L 521.332031 359.957031 C 519.597656 357.726562 516.375 357.480469 514.394531 359.214844 C 512.410156 360.949219 511.914062 364.167969 513.648438 366.152344 L 522.816406 377.050781 C 523.808594 378.292969 525.296875 378.785156 526.535156 378.785156 C 527.523438 378.785156 528.765625 378.539062 529.507812 377.796875 L 555.027344 357.972656 C 557.257812 356.238281 557.503906 353.265625 556.019531 351.035156 C 554.53125 349.300781 551.3125 348.808594 549.328125 350.542969 Z M 549.328125 350.542969 "
          fill-opacity="1" fill-rule="nonzero"/>
</svg>

<svg xmlns="http://www.w3.org/2000/svg" version="1.0" viewBox="290 135 310 330">
    <defs>
        <clipPath id="a">
            <path d="M361 141.43h130V221H361Zm0 0"/>
        </clipPath>
        <clipPath id="b">
            <path d="M302 176h248v282.68H302Zm0 0"/>
        </clipPath>
        <clipPath id="c">
            <path d="M480 309h109.86v110H480Zm0 0"/>
        </clipPath>
    </defs>
    <g clip-path="url(#a)">
        <path fill="#225378" d="M371.43 220.71h109.02a9.94 9.94 0 0 0 9.9-9.9v-37.18a9.94 9.94 0 0 0-9.9-9.9H452.7c-2.48-12.4-13.63-22.3-26.76-22.3s-24.28 9.9-26.76 22.3h-27.75a9.94 9.94 0 0 0-9.91 9.9v37.17a9.94 9.94 0 0 0 9.91 9.91Zm0-47.08h32.21a4.97 4.97 0 0 0 4.96-4.95c0-9.42 7.92-17.34 17.34-17.34s17.35 7.92 17.35 17.34a4.97 4.97 0 0 0 4.95 4.95h32.2v37.17H371.44Zm0 0"/>
    </g>
    <path fill="#225378" d="M430.9 166.2a5.03 5.03 0 0 1-1.45 3.5 4.97 4.97 0 0 1-8.09-5.4 5 5 0 0 1 4.58-3.05 5.02 5.02 0 0 1 3.5 1.45 4.75 4.75 0 0 1 1.08 1.6 4.81 4.81 0 0 1 .37 1.9ZM393.73 245.49a4.97 4.97 0 0 0 4.95 4.95h94.16a4.97 4.97 0 0 0 4.95-4.95 4.97 4.97 0 0 0-4.95-4.96h-94.16a4.97 4.97 0 0 0-4.95 4.96ZM360.78 258.87c.99.99 2.23 1.48 3.71 1.48 1 0 1.99-.24 2.73-.74l14.62-9.91a4.86 4.86 0 0 0 1.23-6.94 4.86 4.86 0 0 0-6.93-1.24l-10.41 6.94-.99.25-1.98-2.23a5.02 5.02 0 0 0-6.94-.25 5.02 5.02 0 0 0-.25 6.94ZM492.84 265.3h-94.16a4.97 4.97 0 0 0-4.95 4.97 4.97 4.97 0 0 0 4.95 4.95h94.16a4.97 4.97 0 0 0 4.95-4.95 4.97 4.97 0 0 0-4.95-4.96ZM360.78 283.64c.99 1 2.23 1.49 3.71 1.49 1 0 1.99-.25 2.73-.74l14.62-9.91a4.86 4.86 0 0 0 1.23-6.94 4.86 4.86 0 0 0-6.93-1.24l-10.41 6.94-.99.24-1.98-2.23a5.02 5.02 0 0 0-6.94-.24 5.02 5.02 0 0 0-.25 6.94ZM497.8 295.04a4.97 4.97 0 0 0-4.96-4.95h-94.16a4.97 4.97 0 0 0-4.95 4.95 4.97 4.97 0 0 0 4.95 4.96h94.16a4.97 4.97 0 0 0 4.95-4.96ZM360.78 308.42c.99.99 2.23 1.49 3.71 1.49 1 0 1.99-.25 2.73-.75l14.62-9.9a4.86 4.86 0 0 0 1.23-6.94 4.86 4.86 0 0 0-6.93-1.24l-10.41 6.94-.99.24-1.98-2.23a5.02 5.02 0 0 0-6.94-.24 5.02 5.02 0 0 0-.25 6.93ZM360.78 333.2c.99.99 2.23 1.48 3.71 1.48 1 0 1.99-.24 2.73-.74l14.62-9.9a4.86 4.86 0 0 0 1.23-6.95 4.86 4.86 0 0 0-6.93-1.23l-10.41 6.93-.99.25-1.98-2.23a5.02 5.02 0 0 0-6.94-.25c-1.98 1.74-1.98 4.96-.25 6.94ZM360.78 357.97c.99 1 2.23 1.5 3.71 1.5 1 0 1.99-.26 2.73-.75l14.62-9.91c2.23-1.49 2.97-4.71 1.23-6.94a4.86 4.86 0 0 0-6.93-1.24l-10.41 6.94-.99.25-1.98-2.23a5.02 5.02 0 0 0-6.94-.25 5.02 5.02 0 0 0-.25 6.94ZM360.78 382.75c.99 1 2.23 1.49 3.71 1.49 1 0 1.99-.25 2.73-.74l14.62-9.92a4.86 4.86 0 0 0 1.23-6.94 4.86 4.86 0 0 0-6.93-1.23l-10.41 6.93-.99.25-1.98-2.23a5.02 5.02 0 0 0-6.94-.25 5.02 5.02 0 0 0-.25 6.94ZM360.78 407.53c.99.99 2.23 1.49 3.71 1.49 1 0 1.99-.25 2.73-.75l14.62-9.91a4.86 4.86 0 0 0 1.23-6.94 4.86 4.86 0 0 0-6.93-1.24l-10.41 6.94-.99.25-1.98-2.23a5.02 5.02 0 0 0-6.94-.25 5.02 5.02 0 0 0-.25 6.94ZM539.91 190.98v109.27c3.47.24 6.7.74 9.91 1.48V190.98a14.9 14.9 0 0 0-14.86-14.87h-34.69v9.91h34.69a4.97 4.97 0 0 1 4.95 4.96Zm0 0"/>
    <g clip-path="url(#b)">
        <path fill="#225378" d="M539.91 443.7a4.97 4.97 0 0 1-4.95 4.96H316.92a4.97 4.97 0 0 1-4.96-4.96V190.98a4.97 4.97 0 0 1 4.96-4.96h34.69v-9.9h-34.69a14.9 14.9 0 0 0-14.87 14.86V443.7c0 8.18 6.7 14.87 14.87 14.87h218.04c8.18 0 14.86-6.7 14.86-14.87v-16.6a63.99 63.99 0 0 1-9.9 1.49Zm0 0"/>
    </g>
    <path fill="#225378" d="M493.83 314.86h-95.15a4.97 4.97 0 0 0-4.95 4.96 4.97 4.97 0 0 0 4.95 4.95h85.48a61.21 61.21 0 0 1 9.67-9.9ZM393.73 344.6a4.97 4.97 0 0 0 4.95 4.95h73.6c.74-3.47 1.97-6.7 3.21-9.9h-76.8a4.97 4.97 0 0 0-4.96 4.94ZM398.68 374.33h72.6c-.5-3.22-.74-6.44-.74-9.91h-71.86a4.97 4.97 0 0 0 0 9.9ZM398.68 389.2a4.97 4.97 0 0 0 0 9.9h82.02a76 76 0 0 1-5.2-9.9ZM520.1 210.8v90.93a63.52 63.52 0 0 1 9.9-1.48V210.8c0-8.18-6.69-14.87-14.86-14.87h-14.87v9.91h14.87a4.97 4.97 0 0 1 4.95 4.96Zm0 0"/>
    <path fill="#225378" d="M336.74 205.84h14.87v-9.9h-14.87a14.9 14.9 0 0 0-14.86 14.86v213.08a14.9 14.9 0 0 0 14.86 14.87h178.4c6.44 0 12.14-4.21 14.12-10.16a67.2 67.2 0 0 1-10.16-1.73 4.82 4.82 0 0 1-3.96 1.98h-178.4a4.97 4.97 0 0 1-4.95-4.96V210.8a4.97 4.97 0 0 1 4.95-4.96Zm0 0"/>
    <g clip-path="url(#c)">
        <path fill="#225378" d="M534.96 309.9c-29.98 0-54.51 24.54-54.51 54.52 0 29.98 24.53 54.5 54.5 54.5 29.99 0 54.52-24.52 54.52-54.5s-24.53-54.51-54.51-54.51Zm0 99.12a44.73 44.73 0 0 1-44.6-44.6 44.73 44.73 0 0 1 44.6-44.6 44.73 44.73 0 0 1 44.6 44.6 44.73 44.73 0 0 1-44.6 44.6Zm0 0"/>
    </g>
    <path fill="#225378" d="m549.33 350.54-21.8 16.85-6.2-7.43a4.83 4.83 0 0 0-6.94-.75c-1.98 1.74-2.48 4.96-.74 6.94l9.17 10.9a4.78 4.78 0 0 0 3.72 1.74c.98 0 2.23-.25 2.97-1l25.52-19.82a5.07 5.07 0 0 0 .99-6.93c-1.49-1.74-4.7-2.23-6.7-.5Zm0 0"/>
</svg>
